images/ICONOS/CEGID/BENEFICIOS ICON.svg

<svg width="46" height="46" viewBox="0 0 46 46" fill="none" xmlns="http://www.w3.org/2000/svg">
<path d="M11.9475 0C12.1571 0 12.3667 0 12.5763 0C13.0434 0.291086 13.5021 0.596547 13.9788 0.869664C15.3251 1.6399 16.8115 1.88068 18.3314 1.96812C19.3387 2.02682 19.928 2.62337 19.934 3.63558C19.94 4.6981 19.958 5.76183 19.9292 6.82435C19.8981 7.97552 19.8549 9.12788 19.7483 10.2731C19.6801 11.0062 19.4848 11.7273 19.3663 12.349C20.4957 12.349 21.6396 12.234 22.7487 12.3813C23.8686 12.5299 24.9537 12.9384 26.058 13.2342C26.058 13.148 26.058 12.9839 26.058 12.8198C26.058 10.6636 26.0509 8.50738 26.064 6.35119C26.0664 5.98104 26.106 5.59891 26.2078 5.24554C26.5815 3.94823 27.7397 3.09054 29.1243 3.06539C29.8824 3.05101 30.6394 3.06299 31.4347 3.06299C31.4347 2.78149 31.4347 2.55988 31.4347 2.33827C31.4323 1.5309 31.7581 0.884039 32.4157 0.424051C32.666 0.24916 32.963 0.138955 33.2385 0C35.095 0 36.9515 0 38.808 0C38.8703 0.0323429 38.9302 0.0742689 38.996 0.0970287C40.0465 0.473165 40.6034 1.25419 40.619 2.37541C40.6214 2.59342 40.619 2.81263 40.619 3.0606C41.3412 3.0606 41.9976 3.0594 42.6551 3.0606C44.7164 3.06419 45.992 4.33395 45.9932 6.38832C45.9944 9.78672 45.9944 13.1851 45.9932 16.5823C45.992 18.669 44.726 19.9352 42.636 19.9364C38.9984 19.9376 35.3609 19.9364 31.7246 19.9364C31.5473 19.9364 31.3712 19.9364 31.2071 19.9364C32.024 24.9783 30.2346 28.7313 25.8221 31.2516C26.9288 32.3944 27.2175 33.7229 26.6809 35.3125C27.1683 35.2526 27.5864 35.2406 27.984 35.1411C28.5194 35.007 29.038 34.8081 29.5626 34.6332C33.7164 33.2485 37.8678 31.8613 42.0215 30.479C43.5079 29.9843 44.9213 30.4838 45.6255 31.7475C46.4172 33.167 45.925 34.7938 44.4194 35.7113C39.8345 38.5048 35.2423 41.2851 30.6681 44.0953C29.4045 44.8716 28.0738 45.2441 26.5886 45.2381C20.4969 45.2154 14.404 45.2261 8.31232 45.2357C8.09194 45.2357 7.82604 45.2884 7.66075 45.4178C7.16608 45.8035 6.62949 46.0024 6.00427 46C4.80653 45.994 3.60879 46 2.41225 45.9952C2.21941 45.994 2.02179 45.9808 1.83374 45.9401C0.830034 45.7293 0.291051 45.0429 0 44.1121C0 38.4521 0 32.7921 0 27.1321C0.470712 25.733 1.46963 25.2107 2.90332 25.2933C3.93218 25.3532 4.96823 25.3101 6.00068 25.3041C6.99121 25.2981 7.71584 25.727 8.19614 26.5942C8.25962 26.708 8.43569 26.8302 8.55786 26.829C10.0395 26.8111 11.5127 26.829 13.0182 27.5442C11.5666 25.0717 11.1605 22.5694 11.775 19.91C11.5342 19.8058 11.3139 19.7184 11.1019 19.6166C7.75417 18.0078 5.87013 15.2682 5.03291 11.7297C4.38014 8.96976 4.61609 6.16072 4.61489 3.36725C4.61489 2.58504 5.27365 2.03161 6.05937 1.97411C6.43187 1.94776 6.80676 1.9274 7.17686 1.88188C8.55666 1.71178 9.87777 1.37278 11.0372 0.554621C11.3282 0.352178 11.6432 0.184474 11.9475 0ZM8.46084 43.6701C8.5866 43.6797 8.67404 43.6917 8.76267 43.6917C14.8544 43.6929 20.9461 43.6917 27.039 43.6929C27.9457 43.6929 28.7769 43.4461 29.5483 42.9705C30.4394 42.4207 31.3365 41.8805 32.23 41.3366C36.0364 39.0199 39.8464 36.7068 43.6445 34.3757C43.9235 34.2044 44.1882 33.9349 44.3392 33.6486C44.6015 33.1515 44.4721 32.646 44.096 32.2387C43.66 31.7667 43.1234 31.7224 42.5306 31.9212C38.1241 33.397 33.7116 34.8573 29.3099 36.345C28.3912 36.6553 27.4726 36.829 26.4988 36.8146C24.5836 36.7858 22.6672 36.8014 20.7509 36.8098C20.3328 36.811 19.9124 36.8302 19.4992 36.8877C18.4057 37.0398 17.4643 37.5465 16.5695 38.1682C16.1647 38.4497 15.7096 38.3503 15.4664 37.9849C15.2365 37.6399 15.3215 37.1931 15.6964 36.92C17.0055 35.9665 18.444 35.3352 20.0861 35.2957C21.4623 35.2621 22.8397 35.2753 24.2171 35.2717C25.0531 35.2693 25.2148 35.1543 25.3717 34.3278C25.4232 34.0559 25.428 33.7564 25.3729 33.4857C25.1526 32.3896 23.9752 31.4792 22.7211 31.4505C21.5545 31.4241 20.3855 31.4097 19.2189 31.4469C17.0846 31.514 15.1897 30.9234 13.5021 29.5937C12.0277 28.4318 10.291 28.2509 8.46443 28.4114C8.46084 33.4893 8.46084 38.5575 8.46084 43.6701ZM13.029 22.2315C13.0302 25.2394 14.64 28.0509 17.2606 29.5231C17.6571 29.7459 18.1553 29.8717 18.6129 29.8884C19.8825 29.9375 21.1557 29.8884 22.4277 29.9148C22.9164 29.9256 23.4003 30.0477 23.8889 30.0957C24.1141 30.1172 24.368 30.14 24.5693 30.0609C28.1948 28.6486 30.3843 24.8477 29.8082 20.9929C29.1458 16.5524 25.2484 13.5097 20.6407 13.838C16.4414 14.1362 13.0278 17.9012 13.029 22.2315ZM36.0676 4.59269C33.823 4.59269 31.5772 4.59029 29.3327 4.59389C28.2032 4.59509 27.59 5.2132 27.5888 6.34879C27.5864 8.8931 27.5935 11.4374 27.5804 13.9829C27.5792 14.2884 27.6846 14.4764 27.9086 14.6621C29.0284 15.5965 29.8944 16.7333 30.4969 18.0593C30.625 18.3408 30.7795 18.4127 31.0706 18.4127C34.9465 18.4031 38.8236 18.4079 42.6994 18.4055C43.8577 18.4055 44.4613 17.7922 44.4613 16.6254C44.4625 13.2127 44.4625 9.7999 44.4613 6.38712C44.4613 5.19163 43.8637 4.59389 42.6683 4.59389C40.4681 4.59149 38.2678 4.59269 36.0676 4.59269ZM12.2146 18.4259C12.2744 18.3276 12.32 18.2689 12.3487 18.2043C13.3764 15.9534 15.0077 14.2932 17.2307 13.2079C17.3601 13.1444 17.4978 12.9994 17.5337 12.8653C17.7817 11.9441 18.129 11.0253 18.2081 10.0874C18.3566 8.31811 18.3482 6.53446 18.4009 4.7568C18.4129 4.35671 18.4021 3.95542 18.4021 3.52897C16.1623 3.36845 14.0363 2.97075 12.2469 1.53808C10.4635 2.98393 8.34466 3.36126 6.12405 3.52178C6.12405 4.7556 6.07973 5.96666 6.13602 7.17174C6.19831 8.4978 6.24502 9.83943 6.49175 11.1391C7.07146 14.2045 8.62972 16.6266 11.4767 18.0929C11.7115 18.2138 11.9594 18.3109 12.2146 18.4259ZM1.53071 35.6491C1.53071 38.2664 1.52951 40.885 1.53191 43.5024C1.53311 44.1852 1.80619 44.4643 2.47693 44.4667C3.64353 44.4715 4.81013 44.4715 5.97673 44.4667C6.61991 44.4631 6.90378 44.1792 6.90378 43.5251C6.90737 38.2748 6.90737 33.0245 6.90378 27.7742C6.90378 27.1177 6.62949 26.8458 5.97673 26.8422C4.84007 26.8362 3.70341 26.8386 2.56676 26.841C1.76427 26.8422 1.53071 27.0782 1.53071 27.8856C1.52951 30.4742 1.53071 33.0616 1.53071 35.6491ZM39.0859 3.04502C39.0859 2.7755 39.0943 2.55269 39.0847 2.33108C39.0643 1.84474 38.7864 1.54168 38.3001 1.53689C36.7778 1.52491 35.2555 1.5273 33.7332 1.53689C33.3475 1.53928 33.0648 1.7549 32.9954 2.13224C32.9415 2.42691 32.9846 2.74076 32.9846 3.04502C35.0339 3.04502 37.0305 3.04502 39.0859 3.04502Z" fill="#2383AE"/>
<path d="M18.4129 24.8621C18.3961 24.1386 18.6572 23.8056 19.1183 23.7804C19.5831 23.7553 19.8801 24.0499 19.9364 24.5926C20.0322 25.5233 20.6982 26.1139 21.5857 26.0552C22.3702 26.0037 22.9966 25.3233 22.9942 24.5267C22.9918 23.6798 22.3415 23.0401 21.4408 22.9994C19.8777 22.9275 18.6764 21.8961 18.4344 20.4191C18.2009 18.9901 18.9902 17.6592 20.4071 17.0591C20.5401 17.0028 20.6682 16.8387 20.7149 16.6961C20.8383 16.3176 21.085 16.1044 21.4671 16.108C21.848 16.1104 22.0863 16.3296 22.2121 16.7069C22.2612 16.8554 22.4205 17.0136 22.569 17.0758C23.7296 17.5658 24.5273 18.681 24.5237 19.8478C24.5225 20.3832 24.1884 20.721 23.6973 20.6851C23.2757 20.6539 23.0481 20.3856 22.993 19.8537C22.8876 18.8236 21.9582 18.1755 21.0132 18.4726C20.2885 18.7002 19.8549 19.377 19.9448 20.1388C20.031 20.8755 20.6598 21.4433 21.4599 21.4661C22.3427 21.4925 23.0972 21.7955 23.6985 22.44C25.1645 24.014 24.6112 26.5343 22.6181 27.3537C22.3822 27.4507 22.2253 27.5394 22.1738 27.8293C22.1115 28.1731 21.824 28.3551 21.4815 28.3599C21.121 28.3659 20.8239 28.1898 20.7509 27.8209C20.6958 27.5382 20.5329 27.4495 20.2993 27.3489C19.1363 26.8458 18.5243 25.9378 18.4129 24.8621Z" fill="#2383AE"/>
<path d="M41.3975 11.5069C41.3963 14.4513 38.9517 16.8854 36.0089 16.8734C33.0792 16.8614 30.6681 14.4501 30.655 11.5177C30.6418 8.57566 33.0744 6.13197 36.0197 6.12718C38.9613 6.12239 41.3999 8.56128 41.3975 11.5069ZM32.1929 11.4925C32.1857 13.5888 33.9056 15.3209 36.0089 15.3365C38.0977 15.3509 39.838 13.6319 39.8644 11.5272C39.8907 9.42256 38.1373 7.65928 36.0232 7.66287C33.9212 7.66646 32.2001 9.38782 32.1929 11.4925Z" fill="#2383AE"/>
<path d="M10.6216 11.1355C11.6468 9.76875 12.6146 8.47983 13.5812 7.1897C13.9393 6.71175 14.2938 6.229 14.6591 5.75704C14.9777 5.34616 15.4377 5.25871 15.791 5.52704C16.1467 5.79656 16.1935 6.25535 15.8761 6.6806C14.3921 8.66789 12.9045 10.6528 11.4097 12.6329C11.0228 13.1456 10.5725 13.1743 10.1161 12.7335C9.64301 12.2771 9.17829 11.8111 8.72195 11.338C8.36861 10.9714 8.35304 10.5402 8.65727 10.2204C8.97587 9.88495 9.42262 9.89213 9.8047 10.2623C10.073 10.521 10.3149 10.8061 10.6216 11.1355Z" fill="#2383AE"/>
<path d="M36.8173 10.7019C37.4402 10.7834 38.287 10.551 38.299 11.4805C38.3121 12.4424 37.4545 12.2292 36.8341 12.2819C36.7347 12.8976 36.9874 13.7721 36.0232 13.7709C35.0818 13.7685 35.313 12.9252 35.2327 12.2651C34.9932 12.2651 34.7608 12.2771 34.5297 12.2627C34.0482 12.2316 33.7451 11.9405 33.7356 11.5177C33.7248 11.0756 34.035 10.7678 34.538 10.7354C34.7584 10.7211 34.9812 10.733 35.2327 10.733C35.3262 10.091 35.0579 9.18778 36.0747 9.2309C36.9695 9.26923 36.7575 10.0802 36.8173 10.7019Z" fill="#2383AE"/>
</svg>

<svg width="46" height="46" fill="none" xmlns="http://www.w3.org/2000/svg"><path d="M11.947 0h.63c.466.291.925.597 1.402.87 1.346.77 2.832 1.01 4.352 1.098 1.008.059 1.597.655 1.603 1.668.006 1.062.024 2.126-.005 3.188a52.526 52.526 0 0 1-.18 3.45c-.069.732-.264 1.453-.383 2.075 1.13 0 2.274-.115 3.383.032 1.12.149 2.205.557 3.309.853v-.414c0-2.156-.007-4.313.006-6.469.002-.37.042-.752.144-1.105.373-1.298 1.532-2.155 2.916-2.18.758-.015 1.515-.003 2.31-.003v-.725c-.002-.807.324-1.454.982-1.914.25-.175.547-.285.823-.424h5.569c.062.032.122.074.188.097 1.05.376 1.607 1.157 1.623 2.278.002.218 0 .438 0 .686.722 0 1.379-.002 2.036 0 2.061.003 3.337 1.273 3.338 3.327v10.194c-.001 2.087-1.267 3.353-3.357 3.354-3.638.002-7.275 0-10.911 0h-.518c.817 5.042-.972 8.795-5.385 11.316 1.107 1.142 1.396 2.47.859 4.06.487-.06.905-.071 1.303-.17.535-.135 1.054-.334 1.579-.509 4.153-1.385 8.305-2.772 12.459-4.154 1.486-.495 2.9.005 3.604 1.268.791 1.42.299 3.047-1.207 3.964-4.584 2.794-9.177 5.574-13.75 8.384a7.51 7.51 0 0 1-4.08 1.143c-6.092-.023-12.185-.012-18.277-.002-.22 0-.486.052-.651.182-.495.386-1.032.584-1.657.582-1.197-.006-2.395 0-3.592-.005a2.838 2.838 0 0 1-.578-.055C.83 45.73.29 45.043 0 44.112v-16.98c.47-1.399 1.47-1.921 2.903-1.839 1.03.06 2.065.017 3.098.011.99-.006 1.715.423 2.195 1.29.064.114.24.236.362.235 1.482-.018 2.955 0 4.46.715-1.451-2.472-1.857-4.975-1.243-7.634-.24-.104-.461-.192-.673-.293-3.348-1.61-5.232-4.349-6.07-7.887-.652-2.76-.416-5.57-.417-8.363 0-.782.659-1.335 1.444-1.393.373-.026.748-.047 1.118-.092 1.38-.17 2.7-.51 3.86-1.327.291-.203.606-.37.91-.555ZM8.461 43.67c.126.01.213.022.302.022h18.276a4.69 4.69 0 0 0 2.51-.721c.89-.55 1.788-1.09 2.681-1.634 3.806-2.317 7.616-4.63 11.415-6.961.278-.172.543-.441.694-.727.263-.498.133-1.003-.243-1.41-.436-.472-.973-.517-1.565-.318-4.407 1.476-8.82 2.936-13.221 4.424-.919.31-1.837.484-2.811.47-1.915-.03-3.832-.014-5.748-.005a9.29 9.29 0 0 0-1.252.078c-1.093.152-2.035.659-2.93 1.28-.404.282-.86.182-1.103-.183-.23-.345-.144-.792.23-1.065 1.31-.953 2.748-1.585 4.39-1.624 1.376-.034 2.754-.02 4.131-.024.836-.003.998-.118 1.155-.944.051-.272.056-.572 0-.842-.22-1.096-1.397-2.007-2.65-2.035a64.296 64.296 0 0 0-3.503-.004c-2.134.067-4.03-.524-5.717-1.853-1.474-1.162-3.211-1.343-5.038-1.183-.003 5.078-.003 10.146-.003 15.26Zm4.568-21.439c.001 3.008 1.611 5.82 4.232 7.292.396.223.894.349 1.352.365 1.27.05 2.543 0 3.815.027.488.01.972.133 1.46.18.226.022.48.045.681-.034 3.626-1.412 5.815-5.213 5.24-9.068-.663-4.44-4.56-7.483-9.168-7.155-4.2.298-7.613 4.063-7.612 8.394ZM36.068 4.593c-2.245 0-4.49-.003-6.735 0-1.13.002-1.743.62-1.744 1.756-.003 2.544.005 5.088-.009 7.634 0 .305.105.493.329.68a9.493 9.493 0 0 1 2.588 3.396c.128.282.282.354.574.354 3.875-.01 7.753-.005 11.628-.008 1.159 0 1.762-.613 1.762-1.78.002-3.412.002-6.825 0-10.238 0-1.195-.597-1.793-1.793-1.793-2.2-.003-4.4-.001-6.6-.001ZM12.215 18.426c.06-.098.105-.157.134-.222 1.027-2.25 2.659-3.91 4.882-4.996a.619.619 0 0 0 .303-.343c.248-.92.595-1.84.674-2.778.149-1.769.14-3.553.193-5.33.012-.4.001-.802.001-1.228-2.24-.16-4.366-.558-6.155-1.99-1.784 1.445-3.902 1.822-6.123 1.983 0 1.234-.044 2.445.012 3.65.062 1.326.109 2.667.356 3.967.58 3.066 2.138 5.488 4.985 6.954.234.12.482.218.738.333ZM1.53 35.649v7.853c.002.683.275.962.946.965a425.3 425.3 0 0 0 3.5 0c.643-.004.927-.288.927-.942.003-5.25.003-10.5 0-15.75 0-.657-.275-.93-.927-.933a461.426 461.426 0 0 0-3.41-.001c-.803.001-1.036.237-1.036 1.045v7.763ZM39.086 3.045c0-.27.008-.492-.001-.714-.02-.486-.299-.79-.785-.794-1.522-.012-3.044-.01-4.567 0-.386.002-.668.218-.738.595-.053.295-.01.609-.01.913h6.1Z" fill="#2383AE"/><path d="M18.413 24.862c-.017-.723.244-1.056.705-1.082.465-.025.762.27.818.813.096.93.762 1.52 1.65 1.462.784-.051 1.41-.732 1.408-1.528-.002-.847-.652-1.487-1.553-1.528-1.563-.072-2.765-1.103-3.007-2.58-.233-1.429.556-2.76 1.973-3.36.133-.056.261-.22.308-.363.123-.378.37-.592.752-.588.381.002.62.222.745.599.05.148.209.307.357.369 1.16.49 1.958 1.605 1.955 2.772-.002.535-.336.873-.827.837-.421-.031-.649-.3-.704-.831-.105-1.03-1.035-1.678-1.98-1.381a1.523 1.523 0 0 0-1.068 1.666c.086.736.715 1.304 1.515 1.327.883.026 1.637.33 2.238.974a3.047 3.047 0 0 1-1.08 4.914c-.236.097-.393.185-.444.475-.063.344-.35.526-.692.53-.361.007-.658-.17-.731-.538-.055-.283-.218-.372-.452-.472-1.163-.503-1.775-1.411-1.886-2.487ZM41.398 11.507c-.002 2.944-2.446 5.378-5.39 5.366-2.929-.012-5.34-2.423-5.353-5.355-.013-2.942 2.42-5.386 5.365-5.39 2.941-.006 5.38 2.433 5.377 5.379Zm-9.205-.014c-.007 2.096 1.713 3.828 3.816 3.843 2.089.015 3.829-1.704 3.855-3.809.027-2.104-1.727-3.868-3.84-3.864a3.852 3.852 0 0 0-3.831 3.83ZM10.622 11.136l2.96-3.946c.357-.478.712-.961 1.077-1.433.319-.41.779-.498 1.132-.23.356.27.402.728.085 1.154a1425.028 1425.028 0 0 1-4.466 5.952c-.387.513-.838.541-1.294.1a54.84 54.84 0 0 1-1.394-1.395c-.353-.367-.369-.798-.065-1.118.319-.335.766-.328 1.148.042.268.259.51.544.817.873Z" fill="#2383AE"/><path d="M36.817 10.702c.623.081 1.47-.151 1.482.778.013.962-.844.75-1.465.802-.1.616.153 1.49-.81 1.489-.942-.003-.711-.846-.791-1.506-.24 0-.472.012-.703-.002-.482-.031-.785-.322-.794-.745-.011-.442.299-.75.802-.783.22-.014.443-.002.695-.002.093-.642-.175-1.545.842-1.502.894.038.682.85.742 1.47Z" fill="#2383AE"/></svg>
